X:1
T:Title
%%score { 1 | 2 }
L:1/8
M:4/4
K:F
V:1 treble nm="Grand Piano"
V:2 bass 
V:1
 z4 z2[Q:1/4=106] C2 | C2 F2 E3 D | D2 C2 A3 C | D2 [DG]2 [CE]2 [EG]2 |[M:3/4] G2 F2 z2 | %5
[M:1/4] C2 |[M:4/4] C2 F2 A3 c | c2 G2 G3 G | [FA]3 [FG] [FA]3 [FG] |[M:3/4] [EG]2 [Ec]2 z2 | %10
[M:1/4] C2 |[M:4/4] C2 F2 E3 D | D2 C2 c3 c | c2 B2 [Be]3 [EBd] |[M:3/4] [Bd]2 [Ac]2 z2 | %15
[M:1/4] F2 |[M:4/4] F2 A2 c3 _e | [F_e]2 [Fd]2 [DF]3 [DFG] | [CFA]2 [Fc]2 [Fc]3 [FA] | %19
[M:3/4] [CG]2 [CF]2 z2 |[M:1/4] z2 |[M:4/4] [Ac]4 A3 c | c2 B4 z2 | [EB]4 [Be]3 [EBd] | %24
[M:3/4] [Bd]2 [Ac]4 |[M:1/4] F2 |[M:4/4] F2 A2 c3 _e | [F_e]2 [Fd]2 [DF]3 [DFG] | %28
 [CFA]2 [Fc]2 [Fc]3 [FA] |[M:7/4] G2 F2 z2 z2 z2 z4 |] %30
V:2
 z4 z2 [F,A,]2 | [F,A,]2 [F,A,C]2 [G,B,C]3 [E,G,B,] | [F,B,]2 [F,A,]2 [F,C]3 [A,,F,] | %3
 [B,,F,B,]2 [B,,B,]2 [C,G,]2 [C,B,]2 |[M:3/4] [F,B,C]2 [F,A,C]2 z2 |[M:1/4] [F,A,]2 | %6
[M:4/4] [F,A,]2 [F,A,C]2 [F,CF]3 [F,A,F] | [E,G,C]2 [E,G,C]2 [E,G,C]3 [E,C] | %8
 [D,A,]3 [D,=B,] [D,A,]3 [D,B,] |[M:3/4] [C,C]2 [C,G,]2 z2 |[M:1/4] C,2 |[M:4/4] C,2 F,2 E,3 D, | %12
 D,2 C,2 [F,A,F]3 [F,A,F] | [G,CE]2 [G,CE]2 [C,C]3 C, |[M:3/4] [F,F]2 [F,F]2 z2 |[M:1/4] [F,A,]2 | %16
[M:4/4] [F,A,]2 [F,CF]2 [F,A,_E]3 [F,A,F] | [B,,B,]2 [B,,B,]2 [B,,B,]3 B,, | %18
 C,2 [C,A,]2 [C,A,]3 [C,C] |[M:3/4] [C,B,]2 [F,A,]2 z2 |[M:1/4] z2 | %21
[M:4/4] [F,F]4 [F,CF]3 [F,A,F] | [G,CE]2 [G,CE]4 z2 | [C,C]4 [C,C]3 C, |[M:3/4] [F,F]2 [F,F]4 | %25
[M:1/4] [F,A,]2 |[M:4/4] [F,A,]2 [F,CF]2 [F,A,_E]3 [F,A,F] | [B,,B,]2 [B,,B,]2 [B,,B,]3 B,, | %28
 C,2 [C,A,]2 [C,A,]3 [C,C] |[M:7/4] [C,B,C]2 [F,A,C]2 z2 z2 z2 z4 |] %30

